img/fb.svg

<svg xmlns="http://www.w3.org/2000/svg" xmlns:xlink="http://www.w3.org/1999/xlink" viewBox="0,0,256,256" width="32px" height="32px"><g fill="#f5deb3" fill-rule="nonzero" stroke="none" stroke-width="1" stroke-linecap="butt" stroke-linejoin="miter" stroke-miterlimit="10" stroke-dasharray="" stroke-dashoffset="0" font-family="none" font-weight="none" font-size="none" text-anchor="none" style="mix-blend-mode: normal"><g transform="scale(8,8)"><path d="M10,4v2h12v-2zM22,6v2h2v-2zM24,8v2h2v-2zM26,10v12h2v-12zM26,22h-2v2h2zM24,24h-2v2h2zM22,26h-5v-7h2v-2h-2v-4h-2v4h-2v2h2v7h-5v2h12zM10,26v-2h-2v2zM8,24v-2h-2v2zM6,22v-12h-2v12zM6,10h2v-2h-2zM8,8h2v-2h-2zM17,13h4v-2h-4z"></path></g></g></svg>

<svg xmlns="http://www.w3.org/2000/svg"  viewBox="0 0 32 32" width="32px" height="32px"><path d="M 10 4 L 10 6 L 22 6 L 22 4 L 10 4 z M 22 6 L 22 8 L 24 8 L 24 6 L 22 6 z M 24 8 L 24 10 L 26 10 L 26 8 L 24 8 z M 26 10 L 26 22 L 28 22 L 28 10 L 26 10 z M 26 22 L 24 22 L 24 24 L 26 24 L 26 22 z M 24 24 L 22 24 L 22 26 L 24 26 L 24 24 z M 22 26 L 17 26 L 17 19 L 19 19 L 19 17 L 17 17 L 17 13 L 15 13 L 15 17 L 13 17 L 13 19 L 15 19 L 15 26 L 10 26 L 10 28 L 22 28 L 22 26 z M 10 26 L 10 24 L 8 24 L 8 26 L 10 26 z M 8 24 L 8 22 L 6 22 L 6 24 L 8 24 z M 6 22 L 6 10 L 4 10 L 4 22 L 6 22 z M 6 10 L 8 10 L 8 8 L 6 8 L 6 10 z M 8 8 L 10 8 L 10 6 L 8 6 L 8 8 z M 17 13 L 21 13 L 21 11 L 17 11 L 17 13 z"/></svg>
